Sources/FrostedUI/Resources/Icons.xcassets/beakerFilled16.imageset/beaker-filled-16.svg

<svg width="16" height="16" viewBox="0 0 16 16" fill="none" xmlns="http://www.w3.org/2000/svg" data-fui-icon="true">
  <g clip-path="url(#clip0_6191_405)">
    <path
      d="M11.9998 0.5C12.414 0.5 12.7498 0.835786 12.7498 1.25C12.7498 1.66421 12.414 2 11.9998 2H10.9998V6.25586C10.9998 6.37268 11.0347 6.48733 11.1003 6.58398L14.9519 12.2451C15.8927 13.6281 14.9028 15.4996 13.2302 15.5H2.76929C1.09697 15.4994 0.107 13.628 1.04761 12.2451L4.89917 6.58398C4.96485 6.4873 4.99976 6.37275 4.99976 6.25586V2H3.99976C3.5857 1.99981 3.24976 1.6641 3.24976 1.25C3.24976 0.835904 3.5857 0.500191 3.99976 0.5H11.9998ZM5.8269 10.5312C5.27685 10.4294 4.61708 10.4801 3.72632 10.9727L2.28784 13.0889C2.02471 13.4759 2.30141 13.9994 2.76929 14H13.2302C13.6983 13.9996 13.975 13.476 13.7117 13.0889L12.5232 11.3428C11.6208 11.9044 10.7961 12.1268 10.0027 12.0908C9.07086 12.0484 8.28982 11.6491 7.64819 11.3076C6.96486 10.9439 6.43244 10.6436 5.8269 10.5312Z"
      fill="currentColor"
    />
  </g>
  <defs>
    <clipPath id="clip0_6191_405"><path fill="currentColor" d="M0 0H16V16H0z" /></clipPath>
  </defs>
</svg>

<svg xmlns="http://www.w3.org/2000/svg" width="16" height="16" fill="none" data-fui-icon="true" viewBox="0 0 16 16"><g clip-path="url(#a)"><path fill="currentColor" d="M12 .5A.75.75 0 0 1 12 2h-1v4.256c0 .117.035.231.1.328l3.852 5.661c.94 1.383-.05 3.255-1.722 3.255H2.77c-1.673 0-2.663-1.872-1.722-3.255l3.851-5.661a.6.6 0 0 0 .1-.328V2H4A.75.75 0 0 1 4 .5zM5.827 10.531c-.55-.102-1.21-.05-2.1.442l-1.44 2.116A.583.583 0 0 0 2.77 14H13.23a.583.583 0 0 0 .482-.911l-1.189-1.746c-.902.561-1.727.784-2.52.748-.932-.043-1.713-.442-2.355-.783-.683-.364-1.216-.664-1.821-.777"/></g><defs><clipPath id="a"><path fill="currentColor" d="M0 0h16v16H0z"/></clipPath></defs></svg>
